X:1
T:Romanian Dances
T:Romanian Dances
T:Bela Bartok
T:Public Domain
T:Public Domain
C:Bela Bartok
Z:Public Domain
%%score 1 2 3 4
L:1/8
M:2/4
K:C
V:1 treble nm="Flute" snm="Fl."
V:2 treble nm="Oboe" snm="Ob."
V:3 treble transpose=-2 nm="B♭ Clarinet" snm="B♭ Cl."
V:4 bass nm="Bassoon" snm="Bsn."
V:1
 z2[Q:1/2=40] | z2 c'2 | z2 c'2 | z2 c'2 | c'2 z2 | z2 g2 | a2 b2 | ^c'2 z2 | e2 z2 | d'2 z2 | %10
 c'2 z2 | c'2 z2 | a/b/c' z2 | z2 g2 | a2 b2 | ^c'2 z2 | ^c'2 z2 | z2 d'2 | c'2 b2 | b2 z2 | %20
 a2 g2 | a2 z2 | g2 z2 | b2 z2 | a2 z2 | z2 ^d2- | d2 z2 | z2 c'2- | c'4 | z2 ^f2 | c'2 ^g2 | %31
 a2 z2 | ^c'2 z2 | c'2 z2 | z2 b2 | a2 z2 | z2 d2 | e2 c'2 | c'2 c'2 | c'2 z2 | c'2 z2 | z2 ^d'2- | %42
 d'2 ^d'2 | z2 e'2- | e'4 | g2 ^f2 | c2 ^G2 | A2 A2 | e2 z2 |] %49
V:2
 z c | .B/.c/ (d2!<(! c) | (d/e/) (e2 ^f) | (^f/g/)!<)! (g2 =f/e/) | (e/d/).c .c z | %5
 .B/.c/ d2- d/(B/4!<(!d/4 | !tenuto!c7/4)(A/4 B).G!<)! | A4 | A7/2 z/ | ^d2 z2 | e2 z2 | z4 | %12
 e2 z2 | z2 B2 | c2 d2 | e2 z2 | z2 z z/ .G/ |!mf! (A3 (3(c/B/c/) | d>A.d).B |!<(! (c3 B | %20
 c)z/(e/.a).b | !tenuto!c'!<)!z/!>(!(b/.a).g | !tenuto!fz/(e/.d).B!>)! | (d/c/) (c2 B) | %24
 (c>!>(!B.c).G!>)! |!p! A3 (3((c/B/c/) | !courtesy!=d>A.d).B | (d/c/)!<(! (c2 (3(d/c/d/)!<)! | %28
!>(! e>cG)!>)! z |"_cresc. molto" AeAe | AeAe |!f! A4 |"^sopra"{/^G} A7/2 z/ | e2 z2 | z4 | z4 | %36
 z2 F2 | G2 e2 | f2 f2 | f2 z2 | e2 z2 | z4 | z4 | z4 | z4 | c2 c2 | ^f2 d2 | d2 z2 | e2 z2 |] %49
V:3
[K:D] z2 | B2 b2 | e2 b2 | A2 e2 | c'2 b z | F2 f2- | f4 | b2 B2 | ^d2 B2 | b2 B2 | b2 e2 | d2 c2 | %12
 A2 de | f2 f2- | f4 | b2 B2 | ^d2 B2 | z2 b2 | a2 ^g2 | f2 B2 | f2 B2 | g2 e2 | a2 f2 | f2 B2 | %24
 f2 A2 | G2 b2- | b2 f2 | e2 b2- | b4 | z2 e2 | B2 f2 | f2 B2 | ^d2 B2 | g2 G2 | z2 f2 | e2 E2 | %36
 z2 B2 | c2 c'2 | b2 _b2 | a2 A2 | a2 ^G2 | G2 b2- | b2 b2 | F2 b2- | b4 | =f2 e2 | b2 f2 | f2 B2 | %48
 ^d2 B2 |] %49
V:4
 z2 | z2 E2 | z2 D2 | z2 CB, | z4 | z2 B,2 | C2 D2 | E2 z2 | z2 z z/ .=C/ | .B,/.C/!<(! (D2 C) | %10
 (D/E/) (E2 ^F) | (^F/G/)!<)! (G2 =F/E/) | (E/D/).C .C z | .B,/.C/!<(!.D.D.B, | %14
{/D} .C.A,{/C}.B,.G, | A,4!<)! | A,7/2 z/ | z2 ^F2 | E2 D2 | C2 z2 | C2 z2 | E2 z2 | D2 z2 | %23
 C2 z2 | C2 z2 | z4 | z4 | z2 ^F2- | F4 | z2 C2 | ^F2 D2 | ^C2 z2 | z2 z z/ =G,/ | %33
 A,3 (3((C/B,/C/) | D>A,.D).B, | (D/C/) (C2 B, |[K:tenor]!<(! C)z/(E/.A).B!<)! | %37
!>(! !tenuto!cz/(B/.A).G!>)! | !tenuto!Fz/(E/.D).B, | (D/C/) (C2 B,) |{/D} (C>!>(!B,.C).G,!>)! | %41
!p! A,3 (3((C/B,/C/) | !courtesy!=D>A,.D).B, | ((D/C/))!<(!!<(! (C2 (3((D/C/D/))!<)!!<)! | %44
!>(! E>CG,)!>)! z |"_cresc. molto" A,!courtesy!=EA,E | A,EA,E |!f!"^poco allarg." A,4 | %48
"^sopra"{/^G,} A,4 |] %49

